lib/brands/icons/open-graph.svg

<svg xmlns="http://www.w3.org/2000/svg" fill="none" aria-hidden="true" viewBox="0 0 48 48"><g id="open-graph-Icon"><g id="Group"><path id="Vector" fill="#B8C6C9" d="M38.6168 29.2647C38.12 29.2647 37.6386 29.3733 37.2134 29.5665C37.0269 29.4531 36.9323 29.3432 36.651 29.236V16.7029L23.9649 9.3201L13.3108 15.609C13.13 15.5031 12.948 15.3926 12.7614 15.2795C12.7461 13.4278 11.2366 11.926 9.3814 11.926C7.51661 11.926 6 13.4431 6 15.3079C6 17.1727 7.51745 18.6899 9.38225 18.6899C9.87906 18.6899 10.371 18.5813 10.7962 18.3881C10.9724 18.4953 11.1984 18.5993 11.339 18.7009V31.3473L24.0071 38.6799L34.7644 32.3875C34.9225 32.4806 35.078 32.5766 35.2404 32.6752C35.2559 34.5269 36.7641 36.0288 38.6193 36.0288C40.4841 36.0288 42 34.5115 42 32.6467C42 30.7819 40.4816 29.2647 38.6168 29.2647Z"/><g id="Group_2"><path id="Vector_2" fill="#759BC5" d="M23.9828 36.5809L34.8318 30.233V17.7667L23.9822 11.45L13.1392 17.8552V30.3065L23.9828 36.5809Z"/><path id="Vector_3" fill="#759BC5" d="M40.1625 32.6745C40.1625 33.525 39.4738 34.2144 38.6244 34.2144C37.775 34.2144 37.0864 33.525 37.0864 32.6745C37.0864 31.8242 37.775 31.1346 38.6244 31.1346C39.4738 31.1346 40.1625 31.8242 40.1625 32.6745Z"/><path id="Vector_4" fill="#759BC5" d="M7.83838 15.3065C7.83838 14.4561 8.52691 13.7666 9.3764 13.7666C10.2257 13.7666 10.9144 14.4561 10.9144 15.3065C10.9144 16.1568 10.2257 16.8463 9.3764 16.8463C8.52691 16.8463 7.83838 16.1568 7.83838 15.3065Z"/></g><path id="Vector_5" fill="#343532" d="M38.6382 33.5829C38.1292 33.5829 37.7151 33.1687 37.7151 32.6596C37.7151 32.1505 38.1292 31.7365 38.6382 31.7365C39.1473 31.7365 39.5614 32.1505 39.5614 32.6596C39.5614 33.1687 39.1473 33.5829 38.6382 33.5829ZM26.1002 34.6172C27.105 33.1698 28.2958 31.0955 29.0283 28.604C30.5845 28.9233 32.0369 29.4409 33.6125 30.227L26.1002 34.6172ZM18.5175 20.2644C18.2747 21.2773 18.1084 22.3561 18.0708 23.491C16.6564 23.4915 15.2782 23.4915 13.7301 23.4915V18.5109C15.2782 19.3455 16.9079 19.9082 18.5175 20.2644ZM9.37949 16.2294C8.87043 16.2294 8.45623 15.8153 8.45623 15.3063C8.45623 14.7972 8.87043 14.3831 9.37949 14.3831C9.88855 14.3831 10.3026 14.7972 10.3026 15.3063C10.3026 15.8153 9.88855 16.2294 9.37949 16.2294ZM21.6736 13.5346C20.6642 14.9443 19.5089 16.9213 18.7873 19.3192C17.3325 19.0027 15.9603 18.508 14.4829 17.7772L21.6736 13.5346ZM24.3998 27.1866C24.4006 26.8082 24.4017 26.4238 24.4029 26.0351C25.2006 25.8752 25.8338 25.2599 26.0234 24.4733C26.9981 24.4741 27.9296 24.4747 28.8432 24.4748C28.8061 25.5267 28.6538 26.5388 28.4227 27.4978C27.187 27.2968 25.8753 27.2019 24.3998 27.1866ZM24.3981 28.1711C25.7855 28.1853 27.0125 28.2696 28.164 28.4488C27.19 31.6585 25.4178 34.1682 24.4185 35.409C24.4015 33.1133 24.3947 30.7514 24.3981 28.1711ZM18.7897 28.7411C19.5125 31.1486 20.6693 33.1176 21.6797 34.516L14.2991 30.2505C15.2025 29.8261 16.7516 29.1969 18.7897 28.7411ZM21.9589 24.4737C22.1455 25.2475 22.7617 25.8548 23.5414 26.0263C23.5401 26.4189 23.539 26.807 23.5382 27.1891C22.018 27.2148 20.6251 27.3749 19.3833 27.6069C19.1442 26.6245 18.9879 25.5772 18.9528 24.4754C19.9322 24.4751 20.9239 24.4745 21.9589 24.4737ZM23.5375 20.7787C23.5384 21.1671 23.5396 21.5546 23.5408 21.9415C22.7631 22.1128 22.1482 22.7177 21.9602 23.4889C20.9252 23.4898 19.9336 23.4903 18.9544 23.4908C18.9919 22.4146 19.1444 21.3917 19.376 20.431C20.6535 20.6536 22.0073 20.7597 23.5375 20.7787ZM23.5277 13.2219C23.529 15.3813 23.5304 17.5932 23.5351 19.7939C22.0946 19.7762 20.8265 19.6822 19.635 19.4825C20.6365 16.2053 22.4861 13.7623 23.5273 12.5717L23.5277 13.2219ZM29.0076 19.2899C28.2772 16.8503 27.1073 14.8225 26.1151 13.4003L33.6773 17.7979C32.7435 18.222 31.131 18.8507 29.0076 19.2899ZM24.3894 13.2213L24.3889 12.5605C25.3754 13.7664 27.1582 16.2474 28.146 19.4519C27.0125 19.6442 25.7558 19.7742 24.3967 19.7932C24.392 17.5926 24.3906 15.3807 24.3894 13.2213ZM23.9911 25.0915C23.3802 25.0915 22.8833 24.5946 22.8833 23.9838C22.8833 23.373 23.3802 22.876 23.9911 22.876C24.6019 22.876 25.0988 23.373 25.0988 23.9838C25.0988 24.5946 24.6019 25.0915 23.9911 25.0915ZM23.5574 35.4761C22.5292 34.3027 20.6631 31.8531 19.6479 28.5653C20.8168 28.3488 22.122 28.1994 23.5365 28.1739C23.5331 30.778 23.54 33.1601 23.5574 35.4761ZM26.0218 23.4885C25.8304 22.7046 25.1983 22.0918 24.4023 21.9325C24.4012 21.5484 24.4001 21.1636 24.3991 20.778C25.8614 20.7587 27.2056 20.6189 28.411 20.4119C28.6493 21.3858 28.8064 22.4163 28.8435 23.4902C27.9294 23.4899 26.9971 23.4893 26.0218 23.4885ZM34.1375 23.4871C32.7301 23.4891 31.1552 23.4902 29.6602 23.4902C29.6241 22.3558 29.4414 21.2716 29.1973 20.2498C31.4925 19.7736 33.293 19.0836 34.1375 18.6342V23.4871ZM13.7301 24.4761C15.2782 24.4761 16.6624 24.4761 18.0761 24.4757C18.1103 25.6424 18.2633 26.7472 18.5096 27.7811C16.3131 28.2726 14.7153 28.9592 13.7301 29.4109V24.4761ZM29.2334 27.6564C29.4694 26.6508 29.6013 25.5862 29.6373 24.475C31.132 24.4748 32.7301 24.4738 34.1375 24.4717V29.4396C32.5893 28.5778 30.9104 28.0075 29.2334 27.6564ZM38.6382 30.5057C38.0598 30.5057 37.5072 30.7361 37.1199 31.1085C36.535 30.7416 35.9671 30.4068 35.4042 30.0999V17.4105L23.9607 10.7398L13.1908 17.1022C12.616 16.7805 12.0267 16.4249 11.3984 16.0308C11.4799 15.8039 11.53 15.5607 11.53 15.3063C11.53 14.1185 10.5654 13.1524 9.37766 13.1524C8.18995 13.1524 7.22461 14.1185 7.22461 15.3063C7.22461 16.494 8.19136 17.4603 9.37907 17.4603C9.95751 17.4603 10.4501 17.2299 10.8376 16.8575C11.4116 17.2175 12.0412 17.5466 12.4634 17.8487V30.6488L23.9604 37.2743L34.8736 30.9062C35.4246 31.2166 36.004 31.5586 36.6043 31.9351C36.5228 32.1619 36.4801 32.4051 36.4801 32.6596C36.4801 33.8473 37.4484 34.8136 38.6361 34.8136C39.8238 34.8136 40.7912 33.8473 40.7912 32.6596C40.7912 31.4719 39.826 30.5057 38.6382 30.5057Z"/></g></g></svg>

<svg xmlns="http://www.w3.org/2000/svg" fill="none" aria-hidden="true" viewBox="0 0 48 48"><path fill="#B8C6C9" d="M38.617 29.265c-.497 0-.978.108-1.404.301-.186-.113-.28-.223-.562-.33V16.703L23.965 9.32 13.31 15.61a36.343 36.343 0 0 1-.55-.33 3.384 3.384 0 0 0-3.38-3.353A3.385 3.385 0 0 0 6 15.308a3.386 3.386 0 0 0 3.382 3.382c.497 0 .989-.109 1.414-.302.176.107.402.211.543.313v12.646l12.668 7.333 10.757-6.292c.158.093.314.189.476.287a3.384 3.384 0 0 0 3.38 3.354A3.385 3.385 0 0 0 42 32.647a3.387 3.387 0 0 0-3.383-3.382Z"/><path fill="#759BC5" d="m23.983 36.58 10.848-6.347V17.767l-10.85-6.317-10.842 6.405v12.451l10.844 6.275Zm16.179-3.905a1.539 1.539 0 1 1-3.078.001 1.539 1.539 0 0 1 3.078-.002ZM7.838 15.306a1.539 1.539 0 1 1 3.078-.001 1.539 1.539 0 0 1-3.078.001Z"/><path fill="#343532" d="M38.639 33.583a.924.924 0 0 1 0-1.847.924.924 0 0 1 0 1.847ZM26.1 34.617c1.005-1.447 2.196-3.521 2.929-6.013 1.556.32 3.008.837 4.584 1.623l-7.513 4.39Zm-7.582-14.353a16.111 16.111 0 0 0-.447 3.227h-4.34v-4.98a18.505 18.505 0 0 0 4.787 1.753ZM9.38 16.23a.924.924 0 0 1 0-1.846.924.924 0 0 1 0 1.846Zm12.294-2.694c-1.01 1.41-2.165 3.386-2.886 5.784-1.455-.316-2.828-.811-4.305-1.542l7.19-4.242ZM24.4 27.187l.003-1.152a2.097 2.097 0 0 0 1.62-1.562l2.82.002a15.194 15.194 0 0 1-.42 3.023c-1.236-.201-2.547-.296-4.023-.311Zm-.002.984c1.388.014 2.615.099 3.766.278-.974 3.21-2.746 5.72-3.745 6.96a826.777 826.777 0 0 1-.02-7.238Zm-5.608.57c.723 2.408 1.88 4.377 2.89 5.775L14.3 30.25a21.946 21.946 0 0 1 4.49-1.51Zm3.17-4.267a2.097 2.097 0 0 0 1.582 1.552l-.004 1.163c-1.52.026-2.913.186-4.154.418a15.15 15.15 0 0 1-.43-3.132l3.005-.001Zm1.578-3.695c0 .388.002.776.003 1.162a2.096 2.096 0 0 0-1.58 1.548l-3.006.002c.037-1.076.19-2.1.421-3.06 1.278.223 2.632.329 4.162.348Zm-.01-7.557c.001 2.16.003 4.371.007 6.572-1.44-.018-2.708-.112-3.9-.312 1.002-3.277 2.851-5.72 3.893-6.91v.65Zm5.48 6.068c-.73-2.44-1.9-4.467-2.893-5.89l7.563 4.398c-.934.424-2.547 1.053-4.67 1.492Zm-4.618-6.07v-.66c.986 1.205 2.768 3.686 3.756 6.89a24.37 24.37 0 0 1-3.75.342c-.004-2.2-.005-4.412-.006-6.572Zm-.399 11.87c-.61 0-1.107-.496-1.107-1.107a1.109 1.109 0 0 1 2.215 0c0 .61-.497 1.107-1.108 1.107Zm-.433 10.385c-1.029-1.173-2.895-3.623-3.91-6.91a23.705 23.705 0 0 1 3.889-.392c-.004 2.604.003 4.986.02 7.302Zm2.464-11.988a2.097 2.097 0 0 0-1.62-1.556l-.003-1.154a25.708 25.708 0 0 0 4.012-.366c.238.974.396 2.004.433 3.078-.914 0-1.847 0-2.822-.002Zm8.116 0-4.477.002c-.037-1.134-.22-2.218-.463-3.24 2.295-.476 4.095-1.166 4.94-1.616v4.853Zm-20.408.988h4.346c.035 1.166.188 2.271.434 3.305a23.418 23.418 0 0 0-4.78 1.63v-4.935Zm15.504 3.18a16.22 16.22 0 0 0 .403-3.181 3273 3273 0 0 0 4.5-.003v4.968c-1.547-.862-3.226-1.433-4.903-1.784Zm9.404 2.85c-.578 0-1.13.23-1.518.602a32.36 32.36 0 0 0-1.716-1.008V17.41l-11.443-6.67-10.77 6.362a41.905 41.905 0 0 1-1.792-1.071 2.14 2.14 0 0 0 .131-.725 2.155 2.155 0 0 0-2.152-2.154 2.156 2.156 0 0 0-2.153 2.154c0 1.188.967 2.154 2.154 2.154a2.07 2.07 0 0 0 1.459-.602c.574.36 1.203.689 1.626.99v12.8l11.497 6.626 10.913-6.368c.55.31 1.13.653 1.73 1.029a2.158 2.158 0 0 0 2.032 2.879 2.157 2.157 0 0 0 2.155-2.154 2.155 2.155 0 0 0-2.152-2.154Z"/></svg>
